images/click-button.svg

<svg width="58" height="59" fill="none" xmlns="http://www.w3.org/2000/svg"><g clip-path="url(#clip0_1_541)" filter="url(#filter0_d_1_541)"><rect x="4" y="0.830078" width="50" height="50" rx="19" fill="#02897A"/><path d="M33.1161 27.4283l-9.1429-9.1429c-.1071-.116-.25-.1696-.4018-.1696-.0714 0-.1518.0178-.2143.0446-.2142.0893-.3571.2947-.3571.5268v13.4286c0 .2321.1429.4375.3571.5268.0625.0268.1429.0446.2143.0446.1518 0 .2947-.0625.4018-.1696l2.7857-2.7857 1.7054 4.0357c.125.2857.4553.4285.75.3035l1.5803-.6696c.2858-.125.4286-.4554.3036-.75l-1.7946-4.25h3.4107c.2321 0 .4375-.1429.5268-.3571.0893-.2054.0446-.4554-.125-.6161z" fill="#fff"/></g><defs><filter id="filter0_d_1_541" x="0" y="0.830078" width="59" height="58" filterUnits="userSpaceOnUse" color-interpolation-filters="sRGB"><feFlood flood-opacity="0" result="BackgroundImageFix"/><feColorMatrix in="SourceAlpha" values="0 0 0 0 0 0 0 0 0 0 0 0 0 0 0 0 0 0 127 0" result="hardAlpha"/><feOffset dy="4"/><feGaussianBlur stdDeviation="2"/><feColorMatrix values="0 0 0 0 0 0 0 0 0 0 0 0 0 0 0 0 0 0 0.25 0"/><feBlend in2="BackgroundImageFix" result="effect1_dropShadow_1_541"/><feBlend in="SourceGraphic" in2="effect1_dropShadow_1_541" result="shape"/></filter><clipPath id="clip0_1_541"><path fill="#fff" transform="translate(4 0.830078)" d="M0 0h51v50H0z"/></clipPath></defs></svg>

<svg width="58" height="59" viewBox="0 0 58 59" fill="none" xmlns="http://www.w3.org/2000/svg">
<g clip-path="url(#clip0_1_541)" filter="url(#filter0_d_1_541)">
<rect x="4" y="0.830078" width="50" height="50" rx="19" fill="#02897A"/>
<path d="M33.1161 27.4283L23.9732 18.2854C23.8661 18.1694 23.7232 18.1158 23.5714 18.1158C23.5 18.1158 23.4196 18.1336 23.3571 18.1604C23.1429 18.2497 23 18.4551 23 18.6872V32.1158C23 32.3479 23.1429 32.5533 23.3571 32.6426C23.4196 32.6694 23.5 32.6872 23.5714 32.6872C23.7232 32.6872 23.8661 32.6247 23.9732 32.5176L26.7589 29.7319L28.4643 33.7676C28.5893 34.0533 28.9196 34.1961 29.2143 34.0711L30.7946 33.4015C31.0804 33.2765 31.2232 32.9461 31.0982 32.6515L29.3036 28.4015H32.7143C32.9464 28.4015 33.1518 28.2586 33.2411 28.0444C33.3304 27.839 33.2857 27.589 33.1161 27.4283Z" fill="white"/>
</g>
<defs>
<filter id="filter0_d_1_541" x="0" y="0.830078" width="59" height="58" filterUnits="userSpaceOnUse" color-interpolation-filters="sRGB">
<feFlood flood-opacity="0" result="BackgroundImageFix"/>
<feColorMatrix in="SourceAlpha" type="matrix" values="0 0 0 0 0 0 0 0 0 0 0 0 0 0 0 0 0 0 127 0" result="hardAlpha"/>
<feOffset dy="4"/>
<feGaussianBlur stdDeviation="2"/>
<feColorMatrix type="matrix" values="0 0 0 0 0 0 0 0 0 0 0 0 0 0 0 0 0 0 0.25 0"/>
<feBlend mode="normal" in2="BackgroundImageFix" result="effect1_dropShadow_1_541"/>
<feBlend mode="normal" in="SourceGraphic" in2="effect1_dropShadow_1_541" result="shape"/>
</filter>
<clipPath id="clip0_1_541">
<rect width="51" height="50" fill="white" transform="translate(4 0.830078)"/>
</clipPath>
</defs>
</svg>
